icon/ir/handbag.svg

<svg stroke-width="1.5" viewBox="0 0 24 24" fill="none" xmlns="http://www.w3.org/2000/svg" height="1em" width="1em">
  <path d="M9 8H4C2.89543 8 2 8.89543 2 10V19C2 20.1046 2.89543 21 4 21H20C21.1046 21 22 20.1046 22 19V10C22 8.89543 21.1046 8 20 8H15M9 8V3.6C9 3.26863 9.26863 3 9.6 3H14.4C14.7314 3 15 3.26863 15 3.6V8M9 8H15M9 8V14M15 8V14" stroke="currentColor" stroke-linecap="round" stroke-linejoin="round"/>
</svg>

<svg width="24" height="24" stroke-width="1.5" fill="none" xmlns="http://www.w3.org/2000/svg"><path d="M9 8H4a2 2 0 0 0-2 2v9a2 2 0 0 0 2 2h16a2 2 0 0 0 2-2v-9a2 2 0 0 0-2-2h-5M9 8V3.6a.6.6 0 0 1 .6-.6h4.8a.6.6 0 0 1 .6.6V8M9 8h6M9 8v6m6-6v6" stroke="currentColor" stroke-linecap="round" stroke-linejoin="round"/></svg>
